;FLAVOR:Marlin
M73 P0
M117 Time Left 0h11m51s
;TIME:711
;Filament used: 0.219912m
;Layer height: 0.2
;MINX:110.304
;MINY:114.302
;MINZ:0.2
;MAXX:118.695
;MAXY:122.698
;MAXZ:17
;POSTPROCESSED
;Generated with Cura_SteamEngine 4.8.0
M140 S60
M105
M190 S60
M104 S200
M105
M109 S200
M82 ;absolute extrusion mode
; Ender 3 Custom Start G-code
G92 E0 ; Reset Extruder
G28 ; Home all axes
G1 Z2.0 F3000 ; Move Z Axis up little to prevent scratching of Heat Bed
G1 X0.1 Y20 Z0.3 F5000.0 ; Move to start position
G1 X0.1 Y200.0 Z0.3 F1500.0 E15 ; Draw the first line
G1 X0.4 Y200.0 Z0.3 F5000.0 ; Move to side a little
G1 X0.4 Y20 Z0.3 F1500.0 E30 ; Draw the second line
G92 E0 ; Reset Extruder
G1 Z2.0 F3000 ; Move Z Axis up little to prevent scratching of Heat Bed
G1 X5 Y20 Z0.3 F5000.0 ; Move over to prevent blob squish
G92 E0
G92 E0
G1 F2700 E-6
;LAYER_COUNT:85
;LAYER:0
M107
;MESH:nyp-nock.stl
G0 F6000 X115.801 Y121.418 Z0.2
;TYPE:WALL-INNER
G1 F2700 E0
G1 F1030.6 X115.497 Y121.538 E0.01087
G1 X115.132 Y121.633 E0.02341
G1 X114.771 Y121.686 E0.03555
G1 X114.389 Y121.697 E0.04826
G1 X114.052 Y121.667 E0.05951
G1 X113.682 Y121.592 E0.07207
G1 X113.339 Y121.481 E0.08406
G1 X112.993 Y121.324 E0.0967
G1 X112.695 Y121.144 E0.10828
G1 X112.403 Y120.918 E0.12056
G1 X112.143 Y120.665 E0.13263
G1 X111.91 Y120.38 E0.14487
G1 X111.711 Y120.072 E0.15707
G1 X111.547 Y119.738 E0.16944
G1 X111.431 Y119.414 E0.18089
G1 X111.345 Y119.039 E0.19368
G1 X111.304 Y118.684 E0.20557
G1 X111.304 Y118.316 E0.21781
G1 X111.345 Y117.961 E0.22969
G1 X111.429 Y117.593 E0.24225
G1 X111.551 Y117.254 E0.25423
G1 X111.711 Y116.928 E0.26631
G1 X111.911 Y116.62 E0.27853
G1 X112.148 Y116.328 E0.29103
G1 X112.398 Y116.086 E0.30261
G1 X112.695 Y115.856 E0.3151
G1 X112.993 Y115.676 E0.32668
G1 X113.339 Y115.519 E0.33932
G1 X113.682 Y115.408 E0.35131
G1 X114.052 Y115.333 E0.36386
G1 X114.389 Y115.303 E0.37512
G1 X114.771 Y115.314 E0.38783
G1 X115.132 Y115.367 E0.39996
G1 X115.492 Y115.461 E0.41234
G1 X115.824 Y115.591 E0.4242
G1 X116.141 Y115.758 E0.43611
G1 X116.455 Y115.973 E0.44877
G1 X116.721 Y116.203 E0.46047
G1 X116.969 Y116.473 E0.47266
G1 X117.196 Y116.783 E0.48544
G1 X117.372 Y117.098 E0.49744
G1 X117.507 Y117.417 E0.50896
G1 X117.612 Y117.779 E0.5215
G1 X117.672 Y118.13 E0.53334
G1 X117.694 Y118.5 E0.54567
G1 X117.672 Y118.87 E0.558
G1 X117.612 Y119.221 E0.56984
G1 X117.507 Y119.583 E0.58238
G1 X117.368 Y119.911 E0.59423
G1 X117.197 Y120.214 E0.6058
G1 X116.967 Y120.529 E0.61877
G1 X116.725 Y120.792 E0.63066
G1 X116.45 Y121.031 E0.64278
G1 X116.151 Y121.236 E0.65483
G1 X115.801 Y121.418 E0.66796
G0 F6000 X115.973 Y121.78
G1 F1030.6 X115.643 Y121.909 E0.67974
G1 X115.616 Y121.92 E0.68071
G1 X115.213 Y122.026 E0.69457
G1 X114.805 Y122.085 E0.70828
G1 X114.383 Y122.097 E0.72232
G1 X113.992 Y122.063 E0.73538
G1 X113.576 Y121.979 E0.74949
G1 X113.196 Y121.856 E0.76278
G1 X112.808 Y121.679 E0.77696
G1 X112.467 Y121.473 E0.79021
G1 X112.139 Y121.22 E0.80399
G1 X111.848 Y120.937 E0.81749
G1 X111.587 Y120.617 E0.83122
G1 X111.361 Y120.267 E0.84508
G1 X111.178 Y119.895 E0.85887
G1 X111.046 Y119.525 E0.87194
G1 X110.951 Y119.112 E0.88603
G1 X110.904 Y118.704 E0.89969
G1 X110.904 Y118.296 E0.91326
G1 X110.951 Y117.888 E0.92692
G1 X111.045 Y117.479 E0.94088
G1 X111.181 Y117.099 E0.9543
G1 X111.361 Y116.733 E0.96787
G1 X111.584 Y116.388 E0.98153
G1 X111.853 Y116.057 E0.99572
G1 X112.139 Y115.78 E1.00896
G1 X112.467 Y115.527 E1.02274
G1 X112.488 Y115.515 E1.02354
G1 X112.808 Y115.321 E1.03599
G1 X113.196 Y115.144 E1.05017
G1 X113.576 Y115.021 E1.06346
G1 X113.992 Y114.937 E1.07757
G1 X114.354 Y114.906 E1.08966
G1 X114.383 Y114.903 E1.09063
G1 X114.805 Y114.915 E1.10467
G1 X115.213 Y114.974 E1.11838
G1 X115.616 Y115.08 E1.13224
G1 X115.988 Y115.225 E1.14552
G1 X116.349 Y115.415 E1.15909
G1 X116.699 Y115.655 E1.1732
G1 X117.005 Y115.92 E1.18667
G1 X117.276 Y116.215 E1.19999
G1 X117.532 Y116.565 E1.21441
G1 X117.731 Y116.921 E1.22798
G1 X117.874 Y117.261 E1.24024
G1 X117.885 Y117.285 E1.24112
G1 X118.002 Y117.687 E1.25505
G1 X118.07 Y118.083 E1.26841
G1 X118.092 Y118.477 E1.28154
G1 X118.094 Y118.5 E1.2823
G1 X118.07 Y118.917 E1.2962
G1 X118.002 Y119.313 E1.30956
G1 X117.885 Y119.715 E1.32349
G1 X117.727 Y120.089 E1.33699
G1 X117.533 Y120.432 E1.3501
G1 X117.274 Y120.787 E1.36471
G1 X117.005 Y121.08 E1.37794
G1 X116.695 Y121.348 E1.39157
G1 X116.359 Y121.579 E1.40513
G1 X115.973 Y121.78 E1.41961
G0 F6000 X116.145 Y122.142
;TYPE:WALL-OUTER
G1 F1030.6 X115.737 Y122.302 E1.43418
G1 X115.291 Y122.419 E1.44952
G1 X114.839 Y122.484 E1.46471
G1 X114.377 Y122.498 E1.48008
G1 X113.932 Y122.459 E1.49494
G1 X113.476 Y122.367 E1.51041
G1 X113.048 Y122.228 E1.52538
G1 X112.623 Y122.034 E1.54092
G1 X112.239 Y121.802 E1.55584
G1 X111.88 Y121.525 E1.57092
G1 X111.553 Y121.208 E1.58607
G1 X111.261 Y120.849 E1.60146
G1 X111.013 Y120.466 E1.61664
G1 X110.808 Y120.048 E1.63212
G1 X110.661 Y119.636 E1.64667
G1 X110.557 Y119.186 E1.66203
G1 X110.504 Y118.723 E1.67753
G1 X110.504 Y118.277 E1.69237
G1 X110.557 Y117.814 E1.70787
G1 X110.661 Y117.364 E1.72323
G1 X110.81 Y116.948 E1.73792
G1 X111.013 Y116.534 E1.75326
G1 X111.261 Y116.151 E1.76844
G1 X111.555 Y115.79 E1.78392
G1 X111.88 Y115.475 E1.79897
G1 X112.239 Y115.198 E1.81406
G1 X112.623 Y114.966 E1.82898
G1 X113.048 Y114.772 E1.84452
G1 X113.476 Y114.633 E1.85948
G1 X113.932 Y114.541 E1.87496
G1 X114.377 Y114.502 E1.88981
G1 X114.839 Y114.516 E1.90519
G1 X115.291 Y114.581 E1.92037
G1 X115.737 Y114.698 E1.93571
G1 X116.156 Y114.862 E1.95068
G1 X116.561 Y115.074 E1.96588
G1 X116.939 Y115.334 E1.98114
G1 X117.289 Y115.637 E1.99654
G1 X117.583 Y115.957 E2.01099
G1 X117.868 Y116.347 E2.02706
G1 X118.09 Y116.744 E2.04218
G1 X118.263 Y117.153 E2.05696
G1 X118.392 Y117.595 E2.07227
G1 X118.468 Y118.036 E2.08715
G1 X118.494 Y118.5 E2.10261
G1 X118.468 Y118.964 E2.11807
G1 X118.392 Y119.405 E2.13295
G1 X118.263 Y119.847 E2.14827
G1 X118.085 Y120.267 E2.16344
G1 X117.868 Y120.651 E2.17811
G1 X117.583 Y121.043 E2.19423
G1 X117.289 Y121.363 E2.20868
G1 X116.939 Y121.666 E2.22408
G1 X116.563 Y121.924 E2.23924
G1 X116.145 Y122.142 E2.25492
G0 F6000 X115.963 Y121.742
G0 X115.644 Y121.061
;TYPE:SKIN
G1 F1030.6 X115.379 Y121.165 E2.26439
G1 X115.05 Y121.251 E2.2757
G1 X114.738 Y121.296 E2.28619
G1 X114.396 Y121.307 E2.29757
G1 X114.111 Y121.281 E2.30709
G1 X113.784 Y121.215 E2.31818
G1 X113.48 Y121.117 E2.32881
G1 X113.172 Y120.976 E2.34007
G1 X112.912 Y120.819 E2.35017
G1 X112.657 Y120.622 E2.36089
G1 X112.436 Y120.408 E2.37112
G1 X112.224 Y120.147 E2.38231
G1 X112.056 Y119.888 E2.39258
G1 X111.901 Y119.572 E2.40428
G1 X111.806 Y119.306 E2.41368
G1 X111.731 Y118.98 E2.4248
G1 X111.694 Y118.657 E2.43562
G1 X111.694 Y118.343 E2.44606
G1 X111.731 Y118.02 E2.45687
G1 X111.804 Y117.705 E2.46763
G1 X111.908 Y117.414 E2.47791
G1 X112.054 Y117.116 E2.48894
G1 X112.227 Y116.85 E2.4995
G1 X112.435 Y116.593 E2.51049
G1 X112.662 Y116.374 E2.52098
G1 X112.912 Y116.181 E2.53149
G1 X113.172 Y116.024 E2.54159
G1 X113.48 Y115.883 E2.55286
G1 X113.784 Y115.785 E2.56348
G1 X114.111 Y115.719 E2.57458
G1 X114.396 Y115.693 E2.58409
G1 X114.738 Y115.704 E2.59548
G1 X115.048 Y115.749 E2.60589
G1 X115.379 Y115.836 E2.61728
G1 X115.664 Y115.947 E2.62745
G1 X115.936 Y116.09 E2.63767
G1 X116.217 Y116.282 E2.64899
G1 X116.454 Y116.487 E2.65941
G1 X116.668 Y116.721 E2.66996
G1 X116.86 Y116.983 E2.68076
G1 X117.025 Y117.278 E2.692
G1 X117.137 Y117.543 E2.70157
G1 X117.234 Y117.878 E2.71317
G1 X117.282 Y118.165 E2.72285
G1 X117.302 Y118.5 E2.73401
G1 X117.282 Y118.835 E2.74518
G1 X117.234 Y119.122 E2.75485
G1 X117.137 Y119.457 E2.76645
G1 X117.015 Y119.745 E2.77686
G1 X116.873 Y119.996 E2.78645
G1 X116.661 Y120.287 E2.79842
G1 X116.458 Y120.509 E2.80843
G1 X116.21 Y120.723 E2.81932
G1 X115.949 Y120.902 E2.82985
G1 X115.644 Y121.061 E2.84129
G0 F6000 X115.772 Y121.309
G0 X114.754 Y121.515
G0 X114.081 Y121.498
G0 X113.398 Y121.32
G0 X112.791 Y121.001
G0 X112.271 Y120.552
G0 X111.575 Y119.489
G0 X111.988 Y119.342
G1 F1030.6 X113.649 Y121.002 E2.91939
G0 F6000 X114.354 Y121.142
G1 F1030.6 X111.854 Y118.642 E3.03699
G0 F6000 X111.882 Y118.105
G1 F1030.6 X114.888 Y121.111 E3.17838
G0 F6000 X115.347 Y121.004
G1 F1030.6 X111.992 Y117.649 E3.33619
G0 F6000 X112.163 Y117.254
G1 F1030.6 X115.739 Y120.83 E3.50439
G0 F6000 X116.086 Y120.611
G1 F1030.6 X112.383 Y116.908 E3.67857
G0 F6000 X112.649 Y116.608
G1 F1030.6 X116.388 Y120.348 E3.85447
G0 F6000 X116.643 Y120.037
G1 F1030.6 X112.955 Y116.349 E4.02794
G0 F6000 X113.308 Y116.137
G1 F1030.6 X116.862 Y119.69 E4.19508
G0 F6000 X117.02 Y119.283
G1 F1030.6 X113.712 Y115.975 E4.35068
G0 F6000 X114.175 Y115.872
G1 F1030.6 X117.123 Y118.82 E4.48935
G0 F6000 X117.127 Y118.258
G1 F1030.6 X114.734 Y115.865 E4.60191
G0 F6000 X115.481 Y116.047
G1 F1030.6 X116.954 Y117.519 E4.67117
G0 F6000 X117.636 Y117.233
;MESH:NONMESH
G0 F300 X117.636 Y117.233 Z0.4
G0 F6000 X117.547 Y119.998
M117 Time Left 0h11m36s
M73 P1
;TIME_ELAPSED:14.128099
;LAYER:1
M106 S85
;TYPE:WALL-INNER
;MESH:nyp-nock.stl
G1 F933.5 X117.36 Y120.331 E4.68387
G1 X117.127 Y120.65 E4.69701
G1 X116.862 Y120.938 E4.71003
G1 X116.572 Y121.19 E4.7228
G1 X116.246 Y121.414 E4.73596
G1 X115.915 Y121.587 E4.74838
G1 X115.547 Y121.731 E4.76153
G1 X115.168 Y121.83 E4.77455
G1 X114.787 Y121.886 E4.78736
G1 X114.395 Y121.897 E4.80041
G1 X114.012 Y121.863 E4.81319
G1 X113.631 Y121.786 E4.82612
G1 X113.267 Y121.668 E4.83885
G1 X112.903 Y121.503 E4.85214
G1 X112.581 Y121.308 E4.86466
G1 X112.274 Y121.071 E4.87756
G1 X111.998 Y120.802 E4.89038
G1 X111.742 Y120.489 E4.90383
G1 X111.536 Y120.17 E4.91646
G1 X111.368 Y119.828 E4.92913
G1 X111.237 Y119.462 E4.94206
G1 X111.147 Y119.071 E4.95541
G1 X111.104 Y118.698 E4.9679
G1 X111.104 Y118.302 E4.98107
G1 X111.147 Y117.929 E4.99355
G1 X111.237 Y117.538 E5.0069
G1 X111.368 Y117.172 E5.01983
G1 X111.536 Y116.83 E5.0325
G1 X111.742 Y116.511 E5.04513
G1 X112 Y116.196 E5.05867
G1 X112.274 Y115.929 E5.0714
G1 X112.581 Y115.692 E5.0843
G1 X112.903 Y115.497 E5.09682
G1 X113.267 Y115.332 E5.11011
G1 X113.631 Y115.214 E5.12284
G1 X114.012 Y115.137 E5.13577
G1 X114.395 Y115.103 E5.14856
G1 X114.787 Y115.114 E5.1616
G1 X115.168 Y115.17 E5.17441
G1 X115.547 Y115.269 E5.18744
G1 X115.915 Y115.413 E5.20058
G1 X116.251 Y115.589 E5.21319
G1 X116.571 Y115.809 E5.22611
G1 X116.858 Y116.057 E5.23873
G1 X117.127 Y116.35 E5.25196
G1 X117.36 Y116.669 E5.26509
G1 X117.547 Y117.002 E5.2778
G1 X117.697 Y117.354 E5.29052
G1 X117.807 Y117.733 E5.30365
G1 X117.872 Y118.111 E5.31641
G1 X117.895 Y118.5 E5.32937
G1 X117.872 Y118.889 E5.34233
G1 X117.807 Y119.267 E5.35508
G1 X117.697 Y119.646 E5.36821
G1 X117.547 Y119.998 E5.38094
G0 F7500 X117.906 Y120.176
G1 F933.5 X117.698 Y120.546 E5.39505
G1 X117.434 Y120.908 E5.40996
G1 X117.142 Y121.226 E5.42431
G1 X116.817 Y121.507 E5.4386
G1 X116.458 Y121.754 E5.4531
G1 X116.079 Y121.953 E5.46734
G1 X115.671 Y122.112 E5.4819
G1 X115.248 Y122.223 E5.49645
G1 X114.822 Y122.285 E5.51076
G1 X114.389 Y122.297 E5.52517
G1 X113.952 Y122.259 E5.53976
G1 X113.525 Y122.173 E5.55425
G1 X113.124 Y122.043 E5.56827
G1 X112.718 Y121.858 E5.58311
G1 X112.354 Y121.638 E5.59725
G1 X112.009 Y121.371 E5.61176
G1 X111.703 Y121.074 E5.62595
G1 X111.419 Y120.726 E5.64089
G1 X111.186 Y120.365 E5.65518
G1 X110.999 Y119.985 E5.66926
G1 X110.852 Y119.573 E5.68381
G1 X110.753 Y119.144 E5.69846
G1 X110.704 Y118.718 E5.71272
G1 X110.704 Y118.282 E5.72722
G1 X110.753 Y117.856 E5.74148
G1 X110.852 Y117.427 E5.75613
G1 X110.999 Y117.015 E5.77067
G1 X111.186 Y116.635 E5.78476
G1 X111.419 Y116.274 E5.79905
G1 X111.705 Y115.924 E5.81409
G1 X112.009 Y115.629 E5.82817
G1 X112.354 Y115.362 E5.84268
G1 X112.696 Y115.156 E5.85596
G1 X112.718 Y115.142 E5.85683
G1 X113.124 Y114.957 E5.87167
G1 X113.525 Y114.827 E5.88569
G1 X113.952 Y114.741 E5.90018
G1 X114.36 Y114.706 E5.9138
G1 X114.389 Y114.703 E5.91477
G1 X114.822 Y114.715 E5.92917
G1 X115.248 Y114.777 E5.94349
G1 X115.671 Y114.888 E5.95804
G1 X116.079 Y115.047 E5.9726
G1 X116.458 Y115.246 E5.98684
G1 X116.815 Y115.491 E6.00124
G1 X117.142 Y115.774 E6.01562
G1 X117.434 Y116.092 E6.02998
G1 X117.698 Y116.454 E6.04489
G1 X117.906 Y116.824 E6.059
G1 X118.074 Y117.219 E6.07328
G1 X118.197 Y117.641 E6.0879
G1 X118.27 Y118.064 E6.10218
G1 X118.293 Y118.477 E6.11593
G1 X118.295 Y118.5 E6.1167
G1 X118.27 Y118.936 E6.13123
G1 X118.197 Y119.359 E6.1455
G1 X118.074 Y119.781 E6.16012
G1 X117.906 Y120.176 E6.1744
G0 F7500 X118.265 Y120.354
;TYPE:WALL-OUTER
G1 F933.5 X118.033 Y120.765 E6.1901
G1 X117.743 Y121.164 E6.2065
G1 X117.426 Y121.509 E6.22209
G1 X117.061 Y121.825 E6.23814
G1 X116.665 Y122.097 E6.25412
G1 X116.24 Y122.32 E6.27009
G1 X115.8 Y122.492 E6.2858
G1 X115.326 Y122.616 E6.3021
G1 X114.856 Y122.684 E6.31789
G1 X114.374 Y122.698 E6.33393
G1 X113.901 Y122.657 E6.34972
G1 X113.427 Y122.561 E6.36581
G1 X112.974 Y122.414 E6.38165
G1 X112.533 Y122.213 E6.39776
G1 X112.126 Y121.967 E6.41358
G1 X111.745 Y121.673 E6.42959
G1 X111.408 Y121.346 E6.44521
G1 X111.096 Y120.963 E6.46164
G1 X110.838 Y120.564 E6.47744
M73 P2
G1 X110.628 Y120.136 E6.4933
G1 X110.468 Y119.688 E6.50912
G1 X110.359 Y119.218 E6.52517
G1 X110.304 Y118.737 E6.54127
G1 X110.304 Y118.263 E6.55703
G1 X110.359 Y117.782 E6.57314
G1 X110.468 Y117.312 E6.58918
G1 X110.628 Y116.864 E6.60501
G1 X110.838 Y116.436 E6.62086
G1 X111.096 Y116.037 E6.63667
G1 X111.41 Y115.652 E6.65319
G1 X111.745 Y115.327 E6.66871
G1 X112.126 Y115.033 E6.68472
G1 X112.533 Y114.787 E6.70054
G1 X112.974 Y114.586 E6.71666
G1 X113.427 Y114.439 E6.7325
G1 X113.901 Y114.343 E6.74858
G1 X114.374 Y114.302 E6.76437
G1 X114.856 Y114.316 E6.78041
G1 X115.326 Y114.384 E6.79621
G1 X115.8 Y114.508 E6.8125
G1 X116.24 Y114.68 E6.82822
G1 X116.665 Y114.903 E6.84418
G1 X117.061 Y115.175 E6.86016
G1 X117.426 Y115.491 E6.87622
G1 X117.743 Y115.836 E6.8918
G1 X118.033 Y116.235 E6.9082
G1 X118.265 Y116.646 E6.9239
G1 X118.452 Y117.087 E6.93983
G1 X118.587 Y117.549 E6.95584
G1 X118.668 Y118.017 E6.97164
G1 X118.695 Y118.5 E6.98773
G1 X118.668 Y118.983 E7.00382
G1 X118.587 Y119.451 E7.01962
G1 X118.452 Y119.913 E7.03562
G1 X118.265 Y120.354 E7.05156
G0 F7500 X117.871 Y120.16
G0 X117.197 Y119.825
;TYPE:SKIN
G1 F933.5 X117.032 Y120.12 E7.0628
G1 X116.821 Y120.408 E7.07467
G1 X116.595 Y120.655 E7.08581
G1 X116.337 Y120.877 E7.09713
G1 X116.043 Y121.079 E7.10899
G1 X115.747 Y121.234 E7.12011
G1 X115.434 Y121.356 E7.13128
G1 X115.085 Y121.448 E7.14328
G1 X114.753 Y121.496 E7.15444
G1 X114.402 Y121.507 E7.16612
G1 X114.069 Y121.477 E7.17724
G1 X113.734 Y121.409 E7.18861
G1 X113.405 Y121.303 E7.20011
G1 X113.089 Y121.159 E7.21166
G1 X112.793 Y120.98 E7.22316
G1 X112.538 Y120.783 E7.23388
G1 X112.284 Y120.536 E7.24566
G1 X112.057 Y120.258 E7.2576
G1 X111.88 Y119.984 E7.26845
G1 X111.722 Y119.662 E7.28038
G1 X111.612 Y119.353 E7.29129
G1 X111.533 Y119.012 E7.30293
G1 X111.494 Y118.671 E7.31435
G1 X111.494 Y118.329 E7.32572
G1 X111.533 Y117.988 E7.33714
G1 X111.612 Y117.647 E7.34878
G1 X111.722 Y117.338 E7.35969
G1 X111.88 Y117.016 E7.37162
G1 X112.057 Y116.742 E7.38247
G1 X112.286 Y116.462 E7.3945
G1 X112.538 Y116.217 E7.40619
G1 X112.793 Y116.02 E7.41691
G1 X113.089 Y115.841 E7.42841
G1 X113.405 Y115.697 E7.43996
G1 X113.734 Y115.591 E7.45146
G1 X114.069 Y115.523 E7.46283
G1 X114.402 Y115.493 E7.47395
G1 X114.753 Y115.504 E7.48563
G1 X115.085 Y115.552 E7.49679
G1 X115.434 Y115.644 E7.50879
G1 X115.755 Y115.769 E7.52025
G1 X116.048 Y115.922 E7.53124
G1 X116.331 Y116.117 E7.54267
G1 X116.591 Y116.342 E7.55411
G1 X116.821 Y116.592 E7.56541
G1 X117.032 Y116.88 E7.57728
G1 X117.197 Y117.175 E7.58852
G1 X117.33 Y117.487 E7.5998
G1 X117.427 Y117.82 E7.61134
G1 X117.482 Y118.146 E7.62234
G1 X117.503 Y118.5 E7.63413
G1 X117.482 Y118.854 E7.64593
G1 X117.427 Y119.18 E7.65692
G1 X117.33 Y119.513 E7.66846
G1 X117.197 Y119.825 E7.67974
G0 F7500 X117.441 Y119.963
G0 X116.744 Y120.813
G0 X116.268 Y121.182
G0 X115.317 Y121.677
G0 X115.206 Y121.25
G1 F933.5 X117.253 Y119.203 E7.77602
G0 F7500 X117.338 Y118.552
G1 F933.5 X114.549 Y121.341 E7.90721
